app/img/offer-label.svg

<svg width="91" height="90" viewBox="0 0 91 90" fill="none" xmlns="http://www.w3.org/2000/svg">
<path d="M21.6587 21.3946C21.6367 23.5928 21.7249 25.7908 21.9228 27.9802H14.2983C14.103 27.3158 13.9906 26.6297 13.9637 25.9376C13.2211 26.8618 12.2572 27.5836 11.1614 28.0361C10.0656 28.4885 8.8733 28.6571 7.695 28.5261C2.69413 28.5261 0 25.3917 0 21.4826C0 16.2 4.19086 13.9989 10.9878 13.9989H13.7172V12.7839C13.7172 11.3576 13.2065 10.3011 11.2167 10.3011C9.22696 10.3011 8.85715 11.1639 8.66346 12.6078H1.02128C1.32063 8.89241 3.52173 5.24738 11.428 5.26499C18.7004 5.26499 21.6587 8.1 21.6587 13.4707V21.3946ZM13.7172 18.1194H11.9563C9.10367 18.1194 8.17042 19.1231 8.17042 20.7607C8.14876 21.0807 8.19677 21.4016 8.3111 21.7013C8.42543 22.0009 8.60338 22.2723 8.83268 22.4966C9.06198 22.7209 9.33719 22.8928 9.63933 23.0004C9.94148 23.1081 10.2633 23.149 10.5828 23.1203C13.3826 23.1203 13.7876 21.1833 13.7876 18.8061L13.7172 18.1194ZM47.8781 20.8839C47.8781 22.8561 47.8781 25.8672 47.8781 27.9274H39.7605C39.6548 27.3991 39.6196 26.1665 39.5844 25.5855C38.917 26.5787 37.9935 27.373 36.9117 27.8845C35.8299 28.3959 34.63 28.6054 33.4389 28.4909C28.6846 28.4909 26.1489 25.5855 26.1489 20.3205V5.70521H34.3898V18.9469C34.3898 20.9543 34.9709 22.3807 36.8374 22.3807C38.7039 22.3807 39.5667 21.2889 39.5667 17.9961V5.67001H47.8252L47.8781 20.8839ZM51.3998 5.75803H54.6046V0H62.7751V5.75803H66.6666V11.3224H62.7574V20.8663C62.7574 22.2398 63.1977 22.7681 64.9233 22.7681C65.3104 22.7918 65.6985 22.7918 66.0855 22.7681V27.8746C64.507 28.2576 62.8845 28.4293 61.2607 28.3852C55.9781 28.3852 54.5341 25.832 54.5341 21.6235V11.3752H51.3822L51.3998 5.75803Z" fill="white"/>
<path d="M22.6441 51.557C22.6441 53.5292 22.6441 56.5403 22.6441 58.6005H14.5265C14.4208 58.0722 14.3856 56.8396 14.3504 56.2585C13.6872 57.2517 12.767 58.0464 11.688 58.558C10.6089 59.0696 9.4112 59.2791 8.22253 59.164C3.45056 59.164 0.914917 56.2585 0.914917 50.9935V36.3783H9.15579V49.62C9.15579 51.6451 9.7369 53.0538 11.6034 53.0538C13.4699 53.0538 14.3328 51.962 14.3328 48.6692V36.3431H22.6441V51.557ZM27.3984 42.5237C27.3984 40.4811 27.3984 38.3329 27.3984 36.4311H35.3224C35.4522 37.2183 35.5404 38.0118 35.5865 38.8083C36.3163 37.8551 37.2661 37.0929 38.3547 36.5869C39.4434 36.0809 40.6384 35.8462 41.8376 35.9028C42.9765 35.8047 44.1193 36.0405 45.1263 36.5815C46.1333 37.1226 46.9608 37.9453 47.5076 38.9492C48.3207 37.9377 49.3627 37.1339 50.5476 36.6043C51.7324 36.0746 53.0261 35.8342 54.3221 35.9028C58.4602 35.9028 61.5417 38.509 61.5417 44.1966V58.6533H53.4593V44.9185C53.4593 43.2809 52.9134 41.925 51.135 41.925C49.3565 41.925 48.5817 43.1224 48.5817 45.6757V58.6533H40.4641V44.9889C40.4641 43.3161 40.0415 41.9602 38.1925 41.9602C36.3436 41.9602 35.6041 42.9816 35.6041 45.8694V58.6533H27.3984V42.5237ZM66.1376 42.1892C66.1376 40.2698 66.1376 38.192 66.1376 36.4311H74.2024C74.3325 37.2415 74.4149 38.0587 74.449 38.8787C75.1612 37.8845 76.116 37.0892 77.2225 36.5683C78.329 36.0474 79.5504 35.8183 80.7705 35.9028C85.2255 35.9028 88.0429 38.8963 88.0429 44.3374V58.6533H79.7844V45.3059C79.7844 43.1576 79.168 41.9602 77.2663 41.9602C75.3646 41.9602 74.449 42.8583 74.449 45.975V58.6533H66.1905L66.1376 42.1892Z" fill="white"/>
<path d="M0.458456 89.3989V88.6769C0.458456 82.9013 3.13498 79.1682 8.38238 75.4176C12.4148 72.5297 13.4713 71.6493 13.4713 69.5539C13.4713 67.4585 12.6261 66.5428 10.8652 66.5428C8.71695 66.5428 8.03023 67.9867 7.80132 70.2934H0.194336C0.476075 65.9089 3.02932 60.8904 11.1822 60.8904C19.335 60.8904 21.7474 65.1869 21.7474 69.6947C21.7474 73.4982 20.1978 75.576 15.0385 78.9921C13.1436 80.0232 11.5157 81.4824 10.2842 83.2535H22.6103L21.6417 89.4165L0.458456 89.3989ZM48.8296 75.3119C48.8296 83.2711 45.9594 89.98 37.1022 89.98C28.245 89.98 25.4452 83.3415 25.4452 75.488C25.4452 67.6345 28.4915 60.9432 37.2255 60.9432C45.5368 60.8904 48.8296 67.1767 48.8296 75.2591V75.3119ZM33.8798 75.3119C33.8798 81.158 34.3377 84.1163 37.1903 84.1163C40.0429 84.1163 40.3598 81.1404 40.3598 75.3119C40.3598 69.4834 39.8668 66.6308 37.2255 66.6308C34.5842 66.6308 33.8798 68.9376 33.8798 75.3119ZM52.4394 89.3989V88.6769C52.4394 82.9013 55.0983 79.1682 60.3457 75.4176C64.3781 72.5297 65.4346 71.6493 65.4346 69.5539C65.4346 67.4585 64.5894 66.5428 62.8286 66.5428C60.6803 66.5428 60.0111 67.9867 59.7646 70.2934H52.1577C52.457 65.9089 55.0103 60.8904 63.1455 60.8904C71.2807 60.8904 73.7107 65.1869 73.7107 69.6947C73.7107 73.4982 72.1612 75.576 67.0018 78.9921C65.1107 80.0217 63.4881 81.4814 62.2651 83.2535H74.5912L73.6227 89.4165L52.4394 89.3989ZM81.6699 89.3989V69.8004C80.2966 70.084 78.8988 70.2314 77.4966 70.2406V64.8523C80.0541 64.5027 82.4184 63.2989 84.2055 61.4362H90.0516V89.3989H81.6699Z" fill="white"/>
</svg>

<svg width="91" height="90" fill="none" xmlns="http://www.w3.org/2000/svg"><path d="M21.659 21.395a65.837 65.837 0 00.264 6.585h-7.625a8.4 8.4 0 01-.334-2.042 7.044 7.044 0 01-6.269 2.588c-5 0-7.695-3.134-7.695-7.043 0-5.283 4.19-7.484 10.988-7.484h2.73v-1.215c0-1.426-.511-2.483-2.501-2.483-1.99 0-2.36.863-2.554 2.307H1.021c.3-3.716 2.5-7.36 10.407-7.343 7.272 0 10.23 2.835 10.23 8.206v7.924zm-7.942-3.276h-1.76c-2.853 0-3.787 1.004-3.787 2.642a2.219 2.219 0 002.413 2.36c2.8 0 3.205-1.938 3.205-4.315l-.07-.687zm34.161 2.765v7.043h-8.117c-.106-.528-.141-1.76-.177-2.341a6.64 6.64 0 01-6.145 2.905c-4.754 0-7.29-2.905-7.29-8.17V5.704h8.24v13.242c0 2.007.582 3.434 2.448 3.434 1.867 0 2.73-1.092 2.73-4.385V5.67h8.258l.053 15.214zM51.4 5.758h3.205V0h8.17v5.758h3.892v5.564h-3.91v9.544c0 1.374.44 1.902 2.166 1.902.387.024.775.024 1.162 0v5.107a18.35 18.35 0 01-4.824.51c-5.283 0-6.727-2.553-6.727-6.762V11.376h-3.152l.018-5.617zM22.644 51.557V58.6h-8.117c-.106-.528-.141-1.76-.177-2.342a6.603 6.603 0 01-6.127 2.906c-4.772 0-7.308-2.906-7.308-8.17V36.377h8.24V49.62c0 2.025.582 3.434 2.448 3.434 1.867 0 2.73-1.092 2.73-4.385V36.343h8.311v15.214zm4.754-9.033V36.43h7.924c.13.787.218 1.58.264 2.377a7.432 7.432 0 016.252-2.905 5.882 5.882 0 015.67 3.046 8.187 8.187 0 016.814-3.046c4.138 0 7.22 2.606 7.22 8.294v14.456h-8.083V44.92c0-1.638-.546-2.994-2.324-2.994-1.779 0-2.553 1.197-2.553 3.75v12.978h-8.118V44.99c0-1.673-.422-3.029-2.271-3.029-1.85 0-2.589 1.022-2.589 3.91v12.783h-8.206v-16.13zm38.74-.335v-5.758h8.064c.13.81.213 1.628.247 2.448a7.166 7.166 0 016.322-2.976c4.454 0 7.272 2.993 7.272 8.434v14.316h-8.259V45.306c0-2.148-.616-3.346-2.518-3.346-1.901 0-2.817.898-2.817 4.015v12.678h-8.258l-.053-16.464zM.458 89.399v-.722c0-5.776 2.677-9.509 7.924-13.26 4.033-2.887 5.09-3.768 5.09-5.863 0-2.096-.846-3.011-2.607-3.011-2.148 0-2.835 1.444-3.064 3.75H.194C.476 65.91 3.03 60.89 11.182 60.89c8.153 0 10.565 4.297 10.565 8.805 0 3.803-1.55 5.881-6.708 9.297a13.858 13.858 0 00-4.755 4.261H22.61l-.968 6.163L.458 89.4zM48.83 75.312c0 7.96-2.87 14.668-11.728 14.668-8.857 0-11.657-6.639-11.657-14.492 0-7.853 3.046-14.545 11.78-14.545 8.312-.053 11.605 6.234 11.605 14.316v.053zm-14.95 0c0 5.846.458 8.804 3.31 8.804 2.853 0 3.17-2.976 3.17-8.804 0-5.829-.493-8.681-3.135-8.681-2.64 0-3.345 2.307-3.345 8.68zm18.56 14.087v-.722c0-5.776 2.658-9.509 7.906-13.26 4.032-2.887 5.089-3.768 5.089-5.863 0-2.096-.846-3.011-2.606-3.011-2.149 0-2.818 1.444-3.064 3.75h-7.607c.299-4.384 2.852-9.403 10.987-9.403 8.136 0 10.566 4.297 10.566 8.805 0 3.803-1.55 5.881-6.71 9.297a13.735 13.735 0 00-4.736 4.261h12.326l-.968 6.163-21.184-.017zm29.23 0V69.8a21.326 21.326 0 01-4.173.44v-5.388a11.445 11.445 0 006.709-3.416h5.846V89.4H81.67z" fill="#fff"/></svg>
